X: 22
T: Rights Of Man, The
Z: Marc-Antoine Bérubé
S: https://thesession.org/tunes/83#setting53463
R: hornpipe
M: 4/4
L: 1/8
K: Emin
|:GA|BcAB GAFD|EFGA B2ef|gfed edBd|cBAG A2GA|
BcAB GAFD | EFGA B2ef|gfed Bgfg |e2E2 E2:|
|:ga|b2bg efga|bc'bg egfe|d2d^c defg|afdf a2gf|
edef gfga|bc'af gfef|gfed Bgfg|e2E2 E2:|

%-------------------- TUNE SEPARATOR --------------------%

